svg/icon/trx.svg

<svg xmlns="http://www.w3.org/2000/svg" xmlns:xlink="http://www.w3.org/1999/xlink" width="32" height="32" viewBox="0 0 32 32"><defs><linearGradient id="trx-c" x1="50%" x2="50%" y1="0%" y2="100%"><stop offset="0%" stop-color="#FFF" stop-opacity=".5"/><stop offset="100%" stop-opacity=".5"/></linearGradient><circle id="trx-b" cx="16" cy="15" r="15"/><filter id="trx-a" width="111.7%" height="111.7%" x="-5.8%" y="-4.2%" filterUnits="objectBoundingBox"><feOffset dy=".5" in="SourceAlpha" result="shadowOffsetOuter1"/><feGaussianBlur in="shadowOffsetOuter1" result="shadowBlurOuter1" stdDeviation=".5"/><feComposite in="shadowBlurOuter1" in2="SourceAlpha" operator="out" result="shadowBlurOuter1"/><feColorMatrix in="shadowBlurOuter1" values="0 0 0 0 0 0 0 0 0 0 0 0 0 0 0 0 0 0 0.199473505 0"/></filter><path id="trx-e" d="M24.7453798,11.2657306 C23.9460005,10.6986674 23.0911729,10.0941124 22.254828,9.49424397 C22.2363453,9.48018456 22.2178625,9.46612514 22.1947591,9.45206572 C22.1023453,9.38176863 21.9960694,9.30678508 21.8666901,9.26460682 L21.8574487,9.25992035 C19.6210349,8.71160307 17.3476555,8.14922638 15.1482071,7.60559557 C13.1520691,7.11351596 11.1605518,6.62143635 9.16441383,6.12935674 C9.11358624,6.11529733 9.06275865,6.10123791 9.00731038,6.08717849 C8.82710347,6.03562729 8.61917243,5.97938962 8.39737932,6.00750846 C8.33268967,6.0168814 8.27724139,6.04031377 8.2264138,6.07311907 L8.17096552,6.1199838 C8.08317242,6.2043403 8.03696552,6.31212917 8.01386207,6.37305331 L8,6.41054509 L8,6.62612282 L8.00924138,6.65892813 C9.2706897,10.2440796 10.5644828,13.8807822 11.8120691,17.400323 C12.7731726,20.1091041 13.7712416,22.9163011 14.7462071,25.6719469 C14.8062761,25.8594058 14.9772416,25.9812541 15.1897933,26 L15.2360002,26 C15.4346899,26 15.6102761,25.9015841 15.6980692,25.742244 L19.3576555,20.3293683 C20.2494487,19.0124696 21.1412418,17.6908843 22.0330349,16.3739856 C22.3980694,15.8350412 22.7631039,15.2914104 23.1281384,14.7524661 C23.7288281,13.8620363 24.3480005,12.9434877 24.9625523,12.0483715 L24.9948971,12.0015067 L24.9948971,11.9452691 C25.0087592,11.7812425 25.0133799,11.4438165 24.7453798,11.2657306 M20.4573797,13.2387355 C19.5979314,13.6933233 18.7200003,14.1619706 17.8374486,14.6259313 C18.3503452,14.0682411 18.8678624,13.5058644 19.380759,12.9481742 C20.0230349,12.2452033 20.6930349,11.5188001 21.3491728,10.8064563 L21.3630349,10.7923968 C21.4184832,10.7174133 21.4877935,10.6471162 21.5617246,10.5721326 C21.6125522,10.5205814 21.6680004,10.4690302 21.718828,10.4081061 C22.0607591,10.6471162 22.4073108,10.8908128 22.7400005,11.1298229 C22.9802763,11.3032223 23.2251729,11.4766218 23.4746902,11.6500213 C22.4581384,12.1749062 21.4415866,12.7138506 20.4573797,13.2387355 M18.24869,13.0137848 C17.5879313,13.740188 16.9040693,14.4853372 16.2248278,15.2211133 C14.9079313,13.5995939 13.5633105,11.954642 12.260276,10.3659279 C11.6688277,9.64421109 11.0727587,8.91780786 10.4813104,8.1960911 L10.4766897,8.19140463 C10.3426897,8.03675104 10.2133104,7.86803803 10.0839311,7.70869796 C10.0007587,7.6009091 9.91296558,7.4978067 9.82517247,7.39001784 C10.3611725,7.53061201 10.9017932,7.66183324 11.4331725,7.788368 C11.8998622,7.90084334 12.3850346,8.01800515 12.8609657,8.13985343 C15.5409658,8.80064605 18.2255865,9.46143867 20.9055866,10.1222313 C20.0137935,11.0876446 19.1173797,12.0671174 18.24869,13.0137848 M15.924483,22.1477196 C15.9753106,21.65564 16.0307589,21.149501 16.0769658,20.6527349 C16.118552,20.2543848 16.1601382,19.8466617 16.2017244,19.4576844 C16.2664141,18.8343836 16.3357244,18.1876504 16.3911727,17.5549766 L16.4050348,17.4425013 C16.4512417,17.0394646 16.4974485,16.6223686 16.5251727,16.2052725 C16.5760003,16.1771537 16.6314486,16.1490349 16.6915175,16.1256025 C16.7608279,16.0927972 16.8301382,16.0646784 16.8994486,16.0225001 C17.9668279,15.455437 19.0342073,14.8883738 20.1062073,14.3259971 C21.1735866,13.7636204 22.2686901,13.1824978 23.3545522,12.6060617 C22.3657246,14.0588682 21.3722763,15.525734 20.4111728,16.9551081 C19.5840693,18.1782775 18.7338624,19.4389385 17.8882762,20.6808538 C17.5555865,21.1776198 17.2090348,21.6837589 16.8809658,22.171152 C16.5113106,22.7147828 16.1324141,23.272473 15.7627589,23.8301632 C15.8089658,23.2677866 15.864414,22.7007234 15.924483,22.1477196 M9.48324143,8.49602534 C9.42317246,8.32731233 9.3584828,8.15391285 9.30303452,7.98988631 C10.5506208,9.51767634 11.8074484,11.0548393 13.0319312,12.5451375 C13.6649657,13.3184055 14.2980002,14.086987 14.9310347,14.8649414 C15.0557933,15.0102221 15.180552,15.1648757 15.3006899,15.3148428 C15.4577933,15.5069881 15.6148968,15.7085065 15.7858623,15.9006518 C15.730414,16.3833585 15.6842071,16.8707516 15.6333796,17.3393989 C15.6010347,17.667452 15.5686899,17.995505 15.5317244,18.3282446 L15.5317244,18.332931 C15.5178623,18.5438223 15.4901382,18.7547136 15.4670347,18.9609184 C15.4346899,19.2467932 15.3607589,19.8935264 15.3607589,19.8935264 L15.3561382,19.9263317 C15.2729658,20.8729991 15.1713106,21.8290395 15.0742761,22.7569611 C15.0326899,23.1412518 14.9957244,23.5349155 14.9541382,23.9285792 C14.9310347,23.8582821 14.9033106,23.787985 14.8802071,23.7223744 C14.8108968,23.5349155 14.7415864,23.3380836 14.6768968,23.1459383 L14.182483,21.7540559 C12.6160691,17.3347124 11.0496553,12.9200553 9.48324143,8.49602534"/><filter id="trx-d" width="120.6%" height="117.5%" x="-10.3%" y="-6.2%" filterUnits="objectBoundingBox"><feOffset dy=".5" in="SourceAlpha" result="shadowOffsetOuter1"/><feGaussianBlur in="shadowOffsetOuter1" result="shadowBlurOuter1" stdDeviation=".5"/><feColorMatrix in="shadowBlurOuter1" values="0 0 0 0 0 0 0 0 0 0 0 0 0 0 0 0 0 0 0.204257246 0"/></filter></defs><g fill="none" fill-rule="evenodd"><g fill-rule="nonzero"><use fill="#000" filter="url(#trx-a)" xlink:href="#trx-b"/><use fill="#2A2A2A" fill-rule="evenodd" xlink:href="#trx-b"/><use fill="url(#trx-c)" fill-rule="evenodd" style="mix-blend-mode:soft-light" xlink:href="#trx-b"/><circle cx="16" cy="15" r="14.5" stroke="#000" stroke-opacity=".097"/></g><g fill-rule="nonzero"><use fill="#000" filter="url(#trx-d)" xlink:href="#trx-e"/><use fill="#FFF" fill-rule="evenodd" xlink:href="#trx-e"/></g></g></svg>

<svg xmlns="http://www.w3.org/2000/svg" xmlns:xlink="http://www.w3.org/1999/xlink" width="32" height="32" viewBox="0 0 32 32"><defs><linearGradient id="c" x1="50%" x2="50%" y1="0%" y2="100%"><stop offset="0%" stop-color="#FFF" stop-opacity=".5"/><stop offset="100%" stop-opacity=".5"/></linearGradient><circle id="b" cx="16" cy="15" r="15"/><filter id="a" width="111.7%" height="111.7%" x="-5.8%" y="-4.2%" filterUnits="objectBoundingBox"><feOffset dy=".5" in="SourceAlpha" result="shadowOffsetOuter1"/><feGaussianBlur in="shadowOffsetOuter1" result="shadowBlurOuter1" stdDeviation=".5"/><feComposite in="shadowBlurOuter1" in2="SourceAlpha" operator="out" result="shadowBlurOuter1"/><feColorMatrix in="shadowBlurOuter1" values="0 0 0 0 0 0 0 0 0 0 0 0 0 0 0 0 0 0 0.199473505 0"/></filter><path id="e" d="M24.745 11.266c-.799-.567-1.654-1.172-2.49-1.772a.676.676 0 0 0-.06-.042 1.12 1.12 0 0 0-.328-.187l-.01-.005a3200.4 3200.4 0 0 1-6.709-1.654L9.164 6.129l-.157-.042c-.18-.051-.388-.108-.61-.08a.421.421 0 0 0-.17.066l-.056.047a.69.69 0 0 0-.157.253L8 6.411v.215l.01.033c1.26 3.585 2.554 7.222 3.802 10.741.961 2.71 1.96 5.516 2.934 8.272.06.187.231.31.444.328h.046a.519.519 0 0 0 .462-.258l3.66-5.413c.891-1.317 1.783-2.638 2.675-3.955l1.095-1.622c.6-.89 1.22-1.809 1.835-2.704l.032-.046v-.057c.014-.164.018-.501-.25-.68m-4.288 1.974c-.86.454-1.737.923-2.62 1.387l1.544-1.678c.642-.703 1.312-1.43 1.968-2.142l.014-.014c.055-.075.125-.145.199-.22.05-.051.106-.103.157-.164.342.24.688.483 1.021.722.24.173.485.347.735.52a257.207 257.207 0 0 0-3.018 1.589m-2.208-.225c-.661.726-1.345 1.471-2.024 2.207a1308.127 1308.127 0 0 0-3.965-4.855l-1.779-2.17-.004-.005c-.134-.154-.264-.323-.393-.482-.083-.108-.171-.211-.259-.319.536.14 1.077.272 1.608.398.467.113.952.23 1.428.352l8.045 1.982c-.892.966-1.789 1.945-2.657 2.892m-2.325 9.134c.051-.492.107-.998.153-1.495.042-.399.083-.806.125-1.195.064-.624.134-1.27.19-1.903l.013-.112c.046-.404.092-.82.12-1.238a1.38 1.38 0 0 1 .167-.08c.069-.032.138-.06.207-.102a611.674 611.674 0 0 1 3.207-1.697c1.068-.562 2.163-1.144 3.249-1.72a935.472 935.472 0 0 0-2.944 4.35c-.827 1.222-1.677 2.483-2.523 3.725-.332.497-.679 1.003-1.007 1.49-.37.544-.749 1.101-1.118 1.66.046-.563.101-1.13.161-1.683M9.484 8.496c-.06-.169-.126-.342-.181-.506 1.248 1.528 2.504 3.065 3.729 4.555.633.773 1.266 1.542 1.899 2.32.125.145.25.3.37.45.157.192.314.394.485.586-.056.482-.102.97-.153 1.438-.032.328-.064.657-.101.99v.004c-.014.21-.042.422-.065.628l-.106.933-.005.032c-.083.947-.185 1.903-.282 2.831-.041.384-.078.778-.12 1.172-.023-.07-.05-.141-.074-.207a21.05 21.05 0 0 1-.203-.576l-.495-1.392L9.483 8.496"/><filter id="d" width="120.6%" height="117.5%" x="-10.3%" y="-6.2%" filterUnits="objectBoundingBox"><feOffset dy=".5" in="SourceAlpha" result="shadowOffsetOuter1"/><feGaussianBlur in="shadowOffsetOuter1" result="shadowBlurOuter1" stdDeviation=".5"/><feColorMatrix in="shadowBlurOuter1" values="0 0 0 0 0 0 0 0 0 0 0 0 0 0 0 0 0 0 0.204257246 0"/></filter></defs><g fill="none"><use fill="#000" filter="url(#a)" xlink:href="#b"/><use fill="#2A2A2A" fill-rule="evenodd" xlink:href="#b"/><use fill="url(#c)" fill-rule="evenodd" style="mix-blend-mode:soft-light" xlink:href="#b"/><circle cx="16" cy="15" r="14.5" stroke="#000" stroke-opacity=".097"/><use fill="#000" filter="url(#d)" xlink:href="#e"/><use fill="#FFF" fill-rule="evenodd" xlink:href="#e"/></g></svg>
